X: 8473
T: Cranford's Five Day Wedding
R: reel
M: 4/4
K: Gmajor
|:d|gedG {A}B2AB|{B}c2BA GEEG|DB,DE GABG|{B}c2BG BAAd|
gedG {A}B2AB|{B}c2BA GEEG|DB,DE GABG|{B}c2BA BGG:|
|:d|gage g/g/g eg|abag a/a/a ge|gage d/d/d Bd|egdB AGAB|
gage g/g/g eg|abag a/a/a ge|dedB degB|{B}c2BA BGG:|

